dist/svgs/org-alert.svg

<svg xmlns="http://www.w3.org/2000/svg" viewBox="0 0 512 512"><path d="M447 432q9 11 2 23-6 12-20 12H320q-8 20-25 32.5T256 512t-39-12.5-25-32.5H83q-14 0-20-12-7-12 2-23l14-21q17-23 17-53V237q0-27 9-52t25-45 37.5-34.5T215 84q-10-15-10-31 0-22 15.5-37.5T259 0q22 0 37.5 15.5T312 53q0 18-11 32 25 8 46 22.5t36.5 34 24 44T416 237v121q0 30 17 53zM259 38q-7 0-11 4.5T244 53q0 15 15 15 14 0 14-15 0-6-4-10.5T259 38zm140 391q-22-33-22-71V237q0-25-9.5-47t-26-38.5-38.5-26-47-9.5-47 9.5-38.5 26-26 38.5-9.5 47v121q0 38-22 71h286z"/></svg>

<?xml version="1.0" encoding="UTF-8" standalone="no"?><svg   xmlns:svg="http://www.w3.org/2000/svg"   xmlns="http://www.w3.org/2000/svg"   version="1.1"   width="512"   height="512"   viewBox="0 0 512 512">  <path     d="M447 432Q456 443 449 455Q443 467 429 467H320Q312 487 295 499.5T256 512T217 499.5T192 467H83Q69 467 63 455Q56 443 65 432L79 411Q96 388 96 358V237Q96 210 105 185T130 140T167.5 105.5T215 84Q205 69 205 53Q205 31 220.5 15.5T259 0Q281 0 296.5 15.5T312 53Q312 71 301 85Q326 93 347 107.5T383.5 141.5T407.5 185.5T416 237V358Q416 388 433 411zM259 38Q252 38 248 42.5T244 53Q244 68 259 68Q273 68 273 53Q273 47 269 42.5T259 38zM399 429Q377 396 377 358V237Q377 212 367.5 190T341.5 151.5T303 125.5T256 116T209 125.5T170.5 151.5T144.5 190T135 237V358Q135 396 113 429H399z"     id="org-alert" /></svg>
